X: 15
T: Home Ruler, The
C: Frank McCollum
Z: tziguk
S: https://thesession.org/tunes/310#setting53486
R: hornpipe
M: 4/4
L: 1/8
K: Dmaj
|:D2FA DAFA|dfed B2dB|A2AB AFDE|(3FED ED B,DA,B,|
D2FA DAFA|dfed B2dB|A2AB AFEG|1F2D2 D2 (3A,B,C:|2F2D2 D2 dB||
|:Addc defg |afbf afed|efed BAde|fded (3Bcd AF|
Addc defg|afbf afed|efed BAdB|1AFEF D2 dB:|2AFEF D2 z2||

%-------------------- TUNE SEPARATOR --------------------%

